src/assets/RECENT_PROJECTS_T.svg

<svg width="968" height="22" viewBox="0 0 968 22" fill="none" xmlns="http://www.w3.org/2000/svg">
<path d="M7.03125 6.375V9.5H11.7188C12.7604 9.5 13.2812 8.97917 13.2812 7.9375C13.2812 6.89583 12.7604 6.375 11.7188 6.375H7.03125ZM7.03125 15.75V22H0.78125V0.125H11.7188C16.9271 0.125 19.5312 2.72917 19.5312 7.9375C19.5312 12.1042 17.8646 14.6042 14.5312 15.4375L21.0938 22H13.2812L7.03125 15.75ZM39.56 0.125V6.375H30.185V7.9375H37.9975V14.1875H30.185V15.75H39.56V22H23.935V0.125H39.56ZM52.62 0.125H59.6512V6.375H52.62C51.3283 6.375 50.2242 6.83333 49.3075 7.75C48.3908 8.66667 47.9325 9.77083 47.9325 11.0625C47.9325 12.3542 48.3908 13.4583 49.3075 14.375C50.2242 15.2917 51.3283 15.75 52.62 15.75H59.6512V22H52.62C49.5992 22 47.021 20.9323 44.8856 18.7969C42.7502 16.6615 41.6825 14.0833 41.6825 11.0625C41.6825 8.04167 42.7502 5.46354 44.8856 3.32812C47.021 1.19271 49.5992 0.125 52.62 0.125ZM79.8675 0.125V6.375H70.4925V7.9375H78.305V14.1875H70.4925V15.75H79.8675V22H64.2425V0.125H79.8675ZM90.7087 11.0625V22H84.4587V0.125H90.7087L98.5212 11.0625V0.125H104.771V22H98.5212L90.7087 11.0625ZM120.55 22H114.3V6.375H108.831V0.125H126.019V6.375H120.55V22ZM151.451 6.375V9.5H156.139C157.18 9.5 157.701 8.97917 157.701 7.9375C157.701 6.89583 157.18 6.375 156.139 6.375H151.451ZM151.451 15.75V22H145.201V0.125H156.139C161.347 0.125 163.951 2.72917 163.951 7.9375C163.951 13.1458 161.347 15.75 156.139 15.75H151.451ZM173.917 6.375V9.5H178.605C179.647 9.5 180.167 8.97917 180.167 7.9375C180.167 6.89583 179.647 6.375 178.605 6.375H173.917ZM173.917 15.75V22H167.667V0.125H178.605C183.813 0.125 186.417 2.72917 186.417 7.9375C186.417 12.1042 184.751 14.6042 181.417 15.4375L187.98 22H180.167L173.917 15.75ZM200.634 22C197.613 22 195.035 20.9323 192.899 18.7969C190.764 16.6615 189.696 14.0833 189.696 11.0625C189.696 8.04167 190.764 5.46354 192.899 3.32812C195.035 1.19271 197.613 0.125 200.634 0.125C203.655 0.125 206.233 1.19271 208.368 3.32812C210.504 5.46354 211.571 8.04167 211.571 11.0625C211.571 14.0833 210.504 16.6615 208.368 18.7969C206.233 20.9323 203.655 22 200.634 22ZM200.634 15.75C201.925 15.75 203.03 15.2917 203.946 14.375C204.863 13.4583 205.321 12.3542 205.321 11.0625C205.321 9.77083 204.863 8.66667 203.946 7.75C203.03 6.83333 201.925 6.375 200.634 6.375C199.342 6.375 198.238 6.83333 197.321 7.75C196.405 8.66667 195.946 9.77083 195.946 11.0625C195.946 12.3542 196.405 13.4583 197.321 14.375C198.238 15.2917 199.342 15.75 200.634 15.75ZM215.491 15.75C217.574 15.75 218.616 14.1875 218.616 11.0625V0.125H224.866V11.0625C224.866 18.3542 221.741 22 215.491 22H213.194V15.75H215.491ZM245.191 0.125V6.375H235.816V7.9375H243.629V14.1875H235.816V15.75H245.191V22H229.566V0.125H245.191ZM258.251 0.125H265.283V6.375H258.251C256.96 6.375 255.855 6.83333 254.939 7.75C254.022 8.66667 253.564 9.77083 253.564 11.0625C253.564 12.3542 254.022 13.4583 254.939 14.375C255.855 15.2917 256.96 15.75 258.251 15.75H265.283V22H258.251C255.23 22 252.652 20.9323 250.517 18.7969C248.381 16.6615 247.314 14.0833 247.314 11.0625C247.314 8.04167 248.381 5.46354 250.517 3.32812C252.652 1.19271 255.23 0.125 258.251 0.125ZM281.28 22H275.03V6.375H269.561V0.125H286.749V6.375H281.28V22ZM297.777 14.1875C292.569 14.1875 289.965 11.8229 289.965 7.09375C289.965 2.44792 292.569 0.125 297.777 0.125H307.934V6.375H297.777C296.736 6.375 296.215 6.61458 296.215 7.09375C296.215 7.65625 296.736 7.9375 297.777 7.9375H302.465C307.673 7.9375 310.277 10.2604 310.277 14.9062C310.277 19.6354 307.673 22 302.465 22H292.309V15.75H302.465C303.507 15.75 304.027 15.4688 304.027 14.9062C304.027 14.4271 303.507 14.1875 302.465 14.1875H297.777ZM335.71 6.375V9.5H340.397C341.439 9.5 341.96 8.97917 341.96 7.9375C341.96 6.89583 341.439 6.375 340.397 6.375H335.71ZM335.71 15.75V22H329.46V0.125H340.397C345.606 0.125 348.21 2.72917 348.21 7.9375C348.21 12.1042 346.543 14.6042 343.21 15.4375L349.772 22H341.96L335.71 15.75ZM368.239 0.125V6.375H358.864V7.9375H366.676V14.1875H358.864V15.75H368.239V22H352.614V0.125H368.239ZM381.299 0.125H388.33V6.375H381.299C380.007 6.375 378.903 6.83333 377.986 7.75C377.07 8.66667 376.611 9.77083 376.611 11.0625C376.611 12.3542 377.07 13.4583 377.986 14.375C378.903 15.2917 380.007 15.75 381.299 15.75H388.33V22H381.299C378.278 22 375.7 20.9323 373.564 18.7969C371.429 16.6615 370.361 14.0833 370.361 11.0625C370.361 8.04167 371.429 5.46354 373.564 3.32812C375.7 1.19271 378.278 0.125 381.299 0.125ZM408.546 0.125V6.375H399.171V7.9375H406.984V14.1875H399.171V15.75H408.546V22H392.921V0.125H408.546ZM419.388 11.0625V22H413.138V0.125H419.388L427.2 11.0625V0.125H433.45V22H427.2L419.388 11.0625ZM449.229 22H442.979V6.375H437.51V0.125H454.698V6.375H449.229V22ZM480.13 6.375V9.5H484.818C485.859 9.5 486.38 8.97917 486.38 7.9375C486.38 6.89583 485.859 6.375 484.818 6.375H480.13ZM480.13 15.75V22H473.88V0.125H484.818C490.026 0.125 492.63 2.72917 492.63 7.9375C492.63 13.1458 490.026 15.75 484.818 15.75H480.13ZM502.596 6.375V9.5H507.284C508.325 9.5 508.846 8.97917 508.846 7.9375C508.846 6.89583 508.325 6.375 507.284 6.375H502.596ZM502.596 15.75V22H496.346V0.125H507.284C512.492 0.125 515.096 2.72917 515.096 7.9375C515.096 12.1042 513.43 14.6042 510.096 15.4375L516.659 22H508.846L502.596 15.75ZM529.312 22C526.292 22 523.714 20.9323 521.578 18.7969C519.443 16.6615 518.375 14.0833 518.375 11.0625C518.375 8.04167 519.443 5.46354 521.578 3.32812C523.714 1.19271 526.292 0.125 529.312 0.125C532.333 0.125 534.911 1.19271 537.047 3.32812C539.182 5.46354 540.25 8.04167 540.25 11.0625C540.25 14.0833 539.182 16.6615 537.047 18.7969C534.911 20.9323 532.333 22 529.312 22ZM529.312 15.75C530.604 15.75 531.708 15.2917 532.625 14.375C533.542 13.4583 534 12.3542 534 11.0625C534 9.77083 533.542 8.66667 532.625 7.75C531.708 6.83333 530.604 6.375 529.312 6.375C528.021 6.375 526.917 6.83333 526 7.75C525.083 8.66667 524.625 9.77083 524.625 11.0625C524.625 12.3542 525.083 13.4583 526 14.375C526.917 15.2917 528.021 15.75 529.312 15.75ZM544.169 15.75C546.253 15.75 547.294 14.1875 547.294 11.0625V0.125H553.544V11.0625C553.544 18.3542 550.419 22 544.169 22H541.872V15.75H544.169ZM573.87 0.125V6.375H564.495V7.9375H572.307V14.1875H564.495V15.75H573.87V22H558.245V0.125H573.87ZM586.93 0.125H593.961V6.375H586.93C585.638 6.375 584.534 6.83333 583.617 7.75C582.701 8.66667 582.242 9.77083 582.242 11.0625C582.242 12.3542 582.701 13.4583 583.617 14.375C584.534 15.2917 585.638 15.75 586.93 15.75H593.961V22H586.93C583.909 22 581.331 20.9323 579.196 18.7969C577.06 16.6615 575.992 14.0833 575.992 11.0625C575.992 8.04167 577.06 5.46354 579.196 3.32812C581.331 1.19271 583.909 0.125 586.93 0.125ZM609.959 22H603.709V6.375H598.24V0.125H615.427V6.375H609.959V22ZM626.456 14.1875C621.248 14.1875 618.644 11.8229 618.644 7.09375C618.644 2.44792 621.248 0.125 626.456 0.125H636.612V6.375H626.456C625.415 6.375 624.894 6.61458 624.894 7.09375C624.894 7.65625 625.415 7.9375 626.456 7.9375H631.144C636.352 7.9375 638.956 10.2604 638.956 14.9062C638.956 19.6354 636.352 22 631.144 22H620.987V15.75H631.144C632.185 15.75 632.706 15.4688 632.706 14.9062C632.706 14.4271 632.185 14.1875 631.144 14.1875H626.456ZM664.389 6.375V9.5H669.076C670.118 9.5 670.639 8.97917 670.639 7.9375C670.639 6.89583 670.118 6.375 669.076 6.375H664.389ZM664.389 15.75V22H658.139V0.125H669.076C674.285 0.125 676.889 2.72917 676.889 7.9375C676.889 12.1042 675.222 14.6042 671.889 15.4375L678.451 22H670.639L664.389 15.75ZM696.917 0.125V6.375H687.542V7.9375H695.355V14.1875H687.542V15.75H696.917V22H681.292V0.125H696.917ZM709.977 0.125H717.009V6.375H709.977C708.686 6.375 707.582 6.83333 706.665 7.75C705.748 8.66667 705.29 9.77083 705.29 11.0625C705.29 12.3542 705.748 13.4583 706.665 14.375C707.582 15.2917 708.686 15.75 709.977 15.75H717.009V22H709.977C706.957 22 704.379 20.9323 702.243 18.7969C700.108 16.6615 699.04 14.0833 699.04 11.0625C699.04 8.04167 700.108 5.46354 702.243 3.32812C704.379 1.19271 706.957 0.125 709.977 0.125ZM737.225 0.125V6.375H727.85V7.9375H735.662V14.1875H727.85V15.75H737.225V22H721.6V0.125H737.225ZM748.066 11.0625V22H741.816V0.125H748.066L755.879 11.0625V0.125H762.129V22H755.879L748.066 11.0625ZM777.907 22H771.657V6.375H766.189V0.125H783.376V6.375H777.907V22ZM808.809 6.375V9.5H813.496C814.538 9.5 815.059 8.97917 815.059 7.9375C815.059 6.89583 814.538 6.375 813.496 6.375H808.809ZM808.809 15.75V22H802.559V0.125H813.496C818.705 0.125 821.309 2.72917 821.309 7.9375C821.309 13.1458 818.705 15.75 813.496 15.75H808.809ZM831.275 6.375V9.5H835.963C837.004 9.5 837.525 8.97917 837.525 7.9375C837.525 6.89583 837.004 6.375 835.963 6.375H831.275ZM831.275 15.75V22H825.025V0.125H835.963C841.171 0.125 843.775 2.72917 843.775 7.9375C843.775 12.1042 842.108 14.6042 838.775 15.4375L845.338 22H837.525L831.275 15.75ZM857.991 22C854.97 22 852.392 20.9323 850.257 18.7969C848.121 16.6615 847.054 14.0833 847.054 11.0625C847.054 8.04167 848.121 5.46354 850.257 3.32812C852.392 1.19271 854.97 0.125 857.991 0.125C861.012 0.125 863.59 1.19271 865.726 3.32812C867.861 5.46354 868.929 8.04167 868.929 11.0625C868.929 14.0833 867.861 16.6615 865.726 18.7969C863.59 20.9323 861.012 22 857.991 22ZM857.991 15.75C859.283 15.75 860.387 15.2917 861.304 14.375C862.22 13.4583 862.679 12.3542 862.679 11.0625C862.679 9.77083 862.22 8.66667 861.304 7.75C860.387 6.83333 859.283 6.375 857.991 6.375C856.7 6.375 855.595 6.83333 854.679 7.75C853.762 8.66667 853.304 9.77083 853.304 11.0625C853.304 12.3542 853.762 13.4583 854.679 14.375C855.595 15.2917 856.7 15.75 857.991 15.75ZM872.848 15.75C874.931 15.75 875.973 14.1875 875.973 11.0625V0.125H882.223V11.0625C882.223 18.3542 879.098 22 872.848 22H870.551V15.75H872.848ZM902.549 0.125V6.375H893.174V7.9375H900.986V14.1875H893.174V15.75H902.549V22H886.924V0.125H902.549ZM915.609 0.125H922.64V6.375H915.609C914.317 6.375 913.213 6.83333 912.296 7.75C911.38 8.66667 910.921 9.77083 910.921 11.0625C910.921 12.3542 911.38 13.4583 912.296 14.375C913.213 15.2917 914.317 15.75 915.609 15.75H922.64V22H915.609C912.588 22 910.01 20.9323 907.874 18.7969C905.739 16.6615 904.671 14.0833 904.671 11.0625C904.671 8.04167 905.739 5.46354 907.874 3.32812C910.01 1.19271 912.588 0.125 915.609 0.125ZM938.638 22H932.388V6.375H926.919V0.125H944.106V6.375H938.638V22ZM955.135 14.1875C949.927 14.1875 947.323 11.8229 947.323 7.09375C947.323 2.44792 949.927 0.125 955.135 0.125H965.291V6.375H955.135C954.093 6.375 953.573 6.61458 953.573 7.09375C953.573 7.65625 954.093 7.9375 955.135 7.9375H959.823C965.031 7.9375 967.635 10.2604 967.635 14.9062C967.635 19.6354 965.031 22 959.823 22H949.666V15.75H959.823C960.864 15.75 961.385 15.4688 961.385 14.9062C961.385 14.4271 960.864 14.1875 959.823 14.1875H955.135Z" fill="#F6E9FA"/>
</svg>

<svg width="968" height="22" fill="none" xmlns="http://www.w3.org/2000/svg"><path d="M7.031 6.375V9.5h4.688c1.041 0 1.562-.52 1.562-1.563 0-1.041-.52-1.562-1.562-1.562H7.03zm0 9.375V22H.781V.125H11.72c5.208 0 7.812 2.604 7.812 7.813 0 4.166-1.666 6.666-5 7.5L21.094 22H13.28l-6.25-6.25zM39.56.125v6.25h-9.375v1.563h7.813v6.25h-7.813v1.562h9.375V22H23.935V.125H39.56zm13.06 0h7.031v6.25H52.62c-1.292 0-2.396.458-3.313 1.375-.916.917-1.375 2.02-1.375 3.313 0 1.291.459 2.395 1.375 3.312.917.917 2.021 1.375 3.313 1.375h7.031V22H52.62c-3.02 0-5.599-1.068-7.734-3.203-2.136-2.136-3.204-4.714-3.204-7.735 0-3.02 1.068-5.598 3.204-7.734C47.02 1.193 49.599.125 52.62.125zm27.248 0v6.25h-9.375v1.563h7.812v6.25h-7.813v1.562h9.376V22H64.243V.125h15.625zm10.84 10.938V22h-6.25V.125h6.25l7.813 10.938V.124h6.25V22h-6.25L90.71 11.062zM120.55 22h-6.25V6.375h-5.469V.125h17.188v6.25h-5.469V22zm30.901-15.625V9.5h4.688c1.041 0 1.562-.52 1.562-1.563 0-1.041-.521-1.562-1.562-1.562h-4.688zm0 9.375V22h-6.25V.125h10.938c5.208 0 7.812 2.604 7.812 7.813 0 5.208-2.604 7.812-7.812 7.812h-4.688zm22.466-9.375V9.5h4.688c1.042 0 1.562-.52 1.562-1.563 0-1.041-.52-1.562-1.562-1.562h-4.688zm0 9.375V22h-6.25V.125h10.938c5.208 0 7.812 2.604 7.812 7.813 0 4.166-1.666 6.666-5 7.5L187.98 22h-7.813l-6.25-6.25zM200.634 22c-3.021 0-5.599-1.068-7.735-3.203-2.135-2.136-3.203-4.714-3.203-7.735 0-3.02 1.068-5.598 3.203-7.734 2.136-2.135 4.714-3.203 7.735-3.203s5.599 1.068 7.734 3.203c2.136 2.136 3.203 4.714 3.203 7.735 0 3.02-1.067 5.598-3.203 7.734-2.135 2.135-4.713 3.203-7.734 3.203zm0-6.25c1.291 0 2.396-.458 3.312-1.375.917-.917 1.375-2.02 1.375-3.313 0-1.291-.458-2.395-1.375-3.312-.916-.917-2.021-1.375-3.312-1.375-1.292 0-2.396.458-3.313 1.375-.916.917-1.375 2.02-1.375 3.313 0 1.291.459 2.395 1.375 3.312.917.917 2.021 1.375 3.313 1.375zm14.857 0c2.083 0 3.125-1.563 3.125-4.688V.126h6.25v10.938c0 7.291-3.125 10.937-9.375 10.937h-2.297v-6.25h2.297zm29.7-15.625v6.25h-9.375v1.563h7.813v6.25h-7.813v1.562h9.375V22h-15.625V.125h15.625zm13.06 0h7.032v6.25h-7.032c-1.291 0-2.396.458-3.312 1.375-.917.917-1.375 2.02-1.375 3.313 0 1.291.458 2.395 1.375 3.312.916.917 2.021 1.375 3.312 1.375h7.032V22h-7.032c-3.021 0-5.599-1.068-7.734-3.203-2.136-2.136-3.203-4.714-3.203-7.735 0-3.02 1.067-5.598 3.203-7.734 2.135-2.135 4.713-3.203 7.734-3.203zM281.28 22h-6.25V6.375h-5.469V.125h17.188v6.25h-5.469V22zm16.497-7.813c-5.208 0-7.812-2.364-7.812-7.093 0-4.646 2.604-6.969 7.812-6.969h10.157v6.25h-10.157c-1.041 0-1.562.24-1.562.719 0 .562.521.843 1.562.843h4.688c5.208 0 7.812 2.323 7.812 6.97 0 4.728-2.604 7.093-7.812 7.093h-10.156v-6.25h10.156c1.042 0 1.562-.281 1.562-.844 0-.479-.52-.719-1.562-.719h-4.688zm37.933-7.812V9.5h4.687c1.042 0 1.563-.52 1.563-1.563 0-1.041-.521-1.562-1.563-1.562h-4.687zm0 9.375V22h-6.25V.125h10.937c5.209 0 7.813 2.604 7.813 7.813 0 4.166-1.667 6.666-5 7.5L349.772 22h-7.812l-6.25-6.25zM368.239.125v6.25h-9.375v1.563h7.812v6.25h-7.812v1.562h9.375V22h-15.625V.125h15.625zm13.06 0h7.031v6.25h-7.031c-1.292 0-2.396.458-3.313 1.375-.916.917-1.375 2.02-1.375 3.313 0 1.291.459 2.395 1.375 3.312.917.917 2.021 1.375 3.313 1.375h7.031V22h-7.031c-3.021 0-5.599-1.068-7.735-3.203-2.135-2.136-3.203-4.714-3.203-7.735 0-3.02 1.068-5.598 3.203-7.734 2.136-2.135 4.714-3.203 7.735-3.203zm27.247 0v6.25h-9.375v1.563h7.813v6.25h-7.813v1.562h9.375V22h-15.625V.125h15.625zm10.842 10.938V22h-6.25V.125h6.25l7.812 10.938V.124h6.25V22h-6.25l-7.812-10.938zM449.229 22h-6.25V6.375h-5.469V.125h17.188v6.25h-5.469V22zM480.13 6.375V9.5h4.688c1.041 0 1.562-.52 1.562-1.563 0-1.041-.521-1.562-1.562-1.562h-4.688zm0 9.375V22h-6.25V.125h10.938c5.208 0 7.812 2.604 7.812 7.813 0 5.208-2.604 7.812-7.812 7.812h-4.688zm22.466-9.375V9.5h4.688c1.041 0 1.562-.52 1.562-1.563 0-1.041-.521-1.562-1.562-1.562h-4.688zm0 9.375V22h-6.25V.125h10.938c5.208 0 7.812 2.604 7.812 7.813 0 4.166-1.666 6.666-5 7.5L516.659 22h-7.813l-6.25-6.25zM529.312 22c-3.02 0-5.598-1.068-7.734-3.203-2.135-2.136-3.203-4.714-3.203-7.735 0-3.02 1.068-5.598 3.203-7.734 2.136-2.135 4.714-3.203 7.734-3.203 3.021 0 5.599 1.068 7.735 3.203 2.135 2.136 3.203 4.714 3.203 7.735 0 3.02-1.068 5.598-3.203 7.734-2.136 2.135-4.714 3.203-7.735 3.203zm0-6.25c1.292 0 2.396-.458 3.313-1.375.917-.917 1.375-2.02 1.375-3.313 0-1.291-.458-2.395-1.375-3.312-.917-.917-2.021-1.375-3.313-1.375-1.291 0-2.395.458-3.312 1.375-.917.917-1.375 2.02-1.375 3.313 0 1.291.458 2.395 1.375 3.312.917.917 2.021 1.375 3.312 1.375zm14.857 0c2.084 0 3.125-1.563 3.125-4.688V.126h6.25v10.938c0 7.291-3.125 10.937-9.375 10.937h-2.297v-6.25h2.297zM573.87.125v6.25h-9.375v1.563h7.812v6.25h-7.812v1.562h9.375V22h-15.625V.125h15.625zm13.06 0h7.031v6.25h-7.031c-1.292 0-2.396.458-3.313 1.375-.916.917-1.375 2.02-1.375 3.313 0 1.291.459 2.395 1.375 3.312.917.917 2.021 1.375 3.313 1.375h7.031V22h-7.031c-3.021 0-5.599-1.068-7.734-3.203-2.136-2.136-3.204-4.714-3.204-7.735 0-3.02 1.068-5.598 3.204-7.734 2.135-2.135 4.713-3.203 7.734-3.203zM609.959 22h-6.25V6.375h-5.469V.125h17.187v6.25h-5.468V22zm16.497-7.813c-5.208 0-7.812-2.364-7.812-7.093 0-4.646 2.604-6.969 7.812-6.969h10.156v6.25h-10.156c-1.041 0-1.562.24-1.562.719 0 .562.521.843 1.562.843h4.688c5.208 0 7.812 2.323 7.812 6.97 0 4.728-2.604 7.093-7.812 7.093h-10.157v-6.25h10.157c1.041 0 1.562-.281 1.562-.844 0-.479-.521-.719-1.562-.719h-4.688zm37.933-7.812V9.5h4.687c1.042 0 1.563-.52 1.563-1.563 0-1.041-.521-1.562-1.563-1.562h-4.687zm0 9.375V22h-6.25V.125h10.937c5.209 0 7.813 2.604 7.813 7.813 0 4.166-1.667 6.666-5 7.5L678.451 22h-7.812l-6.25-6.25zM696.917.125v6.25h-9.375v1.563h7.813v6.25h-7.813v1.562h9.375V22h-15.625V.125h15.625zm13.06 0h7.032v6.25h-7.032c-1.291 0-2.395.458-3.312 1.375-.917.917-1.375 2.02-1.375 3.313 0 1.291.458 2.395 1.375 3.312.917.917 2.021 1.375 3.312 1.375h7.032V22h-7.032c-3.02 0-5.598-1.068-7.734-3.203-2.135-2.136-3.203-4.714-3.203-7.735 0-3.02 1.068-5.598 3.203-7.734 2.136-2.135 4.714-3.203 7.734-3.203zm27.248 0v6.25h-9.375v1.563h7.812v6.25h-7.812v1.562h9.375V22H721.6V.125h15.625zm10.841 10.938V22h-6.25V.125h6.25l7.813 10.938V.124h6.25V22h-6.25l-7.813-10.938zM777.907 22h-6.25V6.375h-5.468V.125h17.187v6.25h-5.469V22zm30.902-15.625V9.5h4.687c1.042 0 1.563-.52 1.563-1.563 0-1.041-.521-1.562-1.563-1.562h-4.687zm0 9.375V22h-6.25V.125h10.937c5.209 0 7.813 2.604 7.813 7.813 0 5.208-2.604 7.812-7.813 7.812h-4.687zm22.466-9.375V9.5h4.688c1.041 0 1.562-.52 1.562-1.563 0-1.041-.521-1.562-1.562-1.562h-4.688zm0 9.375V22h-6.25V.125h10.938c5.208 0 7.812 2.604 7.812 7.813 0 4.166-1.667 6.666-5 7.5L845.338 22h-7.813l-6.25-6.25zM857.991 22c-3.021 0-5.599-1.068-7.734-3.203-2.136-2.136-3.203-4.714-3.203-7.735 0-3.02 1.067-5.598 3.203-7.734 2.135-2.135 4.713-3.203 7.734-3.203s5.599 1.068 7.735 3.203c2.135 2.136 3.203 4.714 3.203 7.735 0 3.02-1.068 5.598-3.203 7.734-2.136 2.135-4.714 3.203-7.735 3.203zm0-6.25c1.292 0 2.396-.458 3.313-1.375.916-.917 1.375-2.02 1.375-3.313 0-1.291-.459-2.395-1.375-3.312-.917-.917-2.021-1.375-3.313-1.375-1.291 0-2.396.458-3.312 1.375-.917.917-1.375 2.02-1.375 3.313 0 1.291.458 2.395 1.375 3.312.916.917 2.021 1.375 3.312 1.375zm14.857 0c2.083 0 3.125-1.563 3.125-4.688V.126h6.25v10.938c0 7.291-3.125 10.937-9.375 10.937h-2.297v-6.25h2.297zM902.549.125v6.25h-9.375v1.563h7.812v6.25h-7.812v1.562h9.375V22h-15.625V.125h15.625zm13.06 0h7.031v6.25h-7.031c-1.292 0-2.396.458-3.313 1.375-.916.917-1.375 2.02-1.375 3.313 0 1.291.459 2.395 1.375 3.312.917.917 2.021 1.375 3.313 1.375h7.031V22h-7.031c-3.021 0-5.599-1.068-7.735-3.203-2.135-2.136-3.203-4.714-3.203-7.735 0-3.02 1.068-5.598 3.203-7.734 2.136-2.135 4.714-3.203 7.735-3.203zM938.638 22h-6.25V6.375h-5.469V.125h17.187v6.25h-5.468V22zm16.497-7.813c-5.208 0-7.812-2.364-7.812-7.093 0-4.646 2.604-6.969 7.812-6.969h10.156v6.25h-10.156c-1.042 0-1.562.24-1.562.719 0 .562.52.843 1.562.843h4.688c5.208 0 7.812 2.323 7.812 6.97 0 4.728-2.604 7.093-7.812 7.093h-10.157v-6.25h10.157c1.041 0 1.562-.281 1.562-.844 0-.479-.521-.719-1.562-.719h-4.688z" fill="#F6E9FA"/></svg>
